X:85
M: C|
L:1/8
K:D
fgaf e2 dc | dfdA BdBG | AFED D4::e<cB<A | d2 cB c2 BA | B2 Bd c2 eg |
fdaf e2 fg | afed ecBA | BcdF E2 DC | DfdA BdBG | AFED D4 :|

